X: 141
T: la Bastringe
O: Qu\'ebec
R: reel
Z: John Chambers <jc:trillian.mit.edu>
B: NEFR #141
M: C|
L: 1/8
K: D
|:"D"f2 ff f2 gf | "A7"e2 c2 "D"d3 d | "A7"c2 d2 e2 fe | "D"d2 e2 f2 d2 |
| "D"f2 ff f2 gf | "A7"e2 c2 "D"d2 A2 | "G"g3 f e2 d2 | "A7"B2 c2 "D"d2 A2 :|
|:"D"d2 fd ad fd | "C"=c2 ec gc ec | "D"d2 fd ad fd | "A7"bg ec "D"dc BA |
| "D"d2 fd ad fd | "C"=c2 ec gc ec | "D"d2 fd ad fa | "A7"bg ec "D"Hd2 ((3ABc) :|
